X:400
T:'Twas Within a Mile
T:Tune
M:2/2
L:1/8
K:D
P:A
fg|"D"a2af d2fd|"G"Bdec "A7"A2FG|"D"A3B ABde|"A"f2e2 "A7"e2fg|
"D"a2af d2fd|"G"Bdec "A7"A2FG|"D"A3B ABde|"A7"f2e2 "D"d2:|
P:B
|:de|"D"f4- f2ef|"G"g4- g2fg|"D/f#"a2a2 "G"gage|"A"f2e2 "A7"e2fg|
"D"a2af d2fd|"G"Bdec "A7"A2FG|"Bm7"A3B "A"ABde|"G"f2"A7"e2 "D"d2:|
T:Harmony
P:A
z2|"D"z2AA z2dd|"G"zccA "A7"B2AG|"D"z2AA z2dd|"A"zBB=c "A7"^c2B2|
"D"z2AA z2dd|"G"zccA "A7"B2AG|"D"z2AA z2dd|"A7"cABc "D".dz:|
P:B
|:z2|"D"zddd .dzz2|"G"zeee .ezz2|"D/f#"zdde "G"f2ef|"A"gfed "A7"A2GA|
"D"z2AA z2dd|"G"zccA "A7"B2AG|"Bm7"z2AA "A"z2dd|"G"cA"A7"Bc "D".dz:|



%%newpage
%%textfont * 20
%%text P1 (1.0) p2
%%textfont * 12


